icons/tube.svg

<svg width="24" height="24" viewBox="0 0 24 24" fill="none" xmlns="http://www.w3.org/2000/svg">
<path fill-rule="evenodd" clip-rule="evenodd" d="M7 3C7 2.44772 7.44772 2 8 2H16C16.5523 2 17 2.44772 17 3C17 3.55228 16.5523 4 16 4V18C16 20.2091 14.2091 22 12 22C9.79086 22 8 20.2091 8 18V4C7.44772 4 7 3.55228 7 3ZM10 4V8H14V4H10ZM14 10H10V13V18C10 19.1046 10.8954 20 12 20C13.1046 20 14 19.1046 14 18V16.1381C13.9328 16.625 13.5149 17 13.0095 17H13C12.4477 17 12 16.5523 12 16C12 15.4477 12.4477 15 13 15H13.0095C13.5149 15 13.9328 15.375 14 15.8619V10ZM10 13C10 13.5523 10.4477 14 11 14H11.0095C11.5617 14 12.0095 13.5523 12.0095 13C12.0095 12.4477 11.5617 12 11.0095 12H11C10.4477 12 10 12.4477 10 13Z" fill="black"/>
</svg>

<svg
  width="24"
  height="24"
  viewBox="0 0 24 24"
  xmlns="http://www.w3.org/2000/svg"
>
  <path
    fill-rule="evenodd"
    clip-rule="evenodd"
    d="M7 3a1 1 0 0 1 1-1h8a1 1 0 1 1 0 2v14a4 4 0 0 1-8 0V4a1 1 0 0 1-1-1zm3 1v4h4V4h-4zm4 6h-4v8a2 2 0 1 0 4 0v-1.862a1 1 0 0 1-.99.862H13a1 1 0 1 1 0-2h.01a1 1 0 0 1 .99.862V10zm-4 3a1 1 0 0 0 1 1h.01a1 1 0 0 0 0-2H11a1 1 0 0 0-1 1z"
  />
</svg>
